icons/1-2x-playback-speed-16.svg

<svg id="icons" xmlns="http://www.w3.org/2000/svg" viewBox="0 0 16 16"><path d="M10,16H6v-.5a3.178,3.178,0,0,1,1.76562-2.72363C8.53076,12.24658,9,11.88184,9,11.1001A1.00759,1.00759,0,0,0,8.002,9.991a.9316.9316,0,0,0-.72561.26925A1.20628,1.20628,0,0,0,6.991,11L6,10.998a2.11032,2.11032,0,0,1,.55566-1.43116A1.88432,1.88432,0,0,1,8.002,9,1.89723,1.89723,0,0,1,10,11.1001a2.94008,2.94008,0,0,1-1.665,2.49853c-.66211.4585-1.11914.80518-1.27539,1.40137H10ZM2,.91113.03418,1.73389l.38574.92285L1,2.41406V8H2ZM7.709,2.415,6.79883,2,1.05518,14.585,1.96533,15ZM14.72143,6,13.502,7.639,12.28248,6H11.00489l1.8583,2.498L11.002,11h1.27753L13.502,9.357,14.72443,11H16L14.14072,8.498,16,6Z"/><path fill="none" d="M0 0h16v16H0z"/></svg>

<svg xmlns="http://www.w3.org/2000/svg" viewBox="0 0 16 16"><path d="M10 16H6v-.5a3.178 3.178 0 0 1 1.766-2.724C8.53 12.246 9 11.882 9 11.1a1.008 1.008 0 0 0-.998-1.109.932.932 0 0 0-.726.27 1.206 1.206 0 0 0-.285.739L6 10.998a2.11 2.11 0 0 1 .556-1.431A1.884 1.884 0 0 1 8.002 9 1.897 1.897 0 0 1 10 11.1a2.94 2.94 0 0 1-1.665 2.5c-.662.458-1.12.805-1.275 1.401H10zM2 .911l-1.966.823.386.923.58-.243V8h1zm5.709 1.504L6.799 2 1.055 14.585l.91.415zM14.721 6l-1.219 1.639L12.282 6h-1.277l1.858 2.498L11.002 11h1.278l1.222-1.643L14.724 11H16l-1.86-2.502L16 6z"/><path fill="none" d="M0 0h16v16H0z"/></svg>
